X:1
T:Title
%%score { ( 1 3 ) | ( 2 4 ) }
L:1/8
Q:1/4=100
M:4/4
K:E
V:1 treble nm="Grand Piano"
V:3 treble 
V:2 bass 
V:4 bass 
V:1
 B,2 CD E2 [B,DF]2 | G2 c2 B2 z2 | B2 GF E2 [DF]2 | G6 z2 | B,2 CD E2 [B,DF]2 | %5
w: W.~F.~Heath * * * *|||||
 [B,EG]2 [E^A]2 [DB]2 [DB]2 | d2 B2 ^AcGA |[M:3/4] [B,DB]4 z2 |[M:1/4] B,2 | %9
w: ||||
[M:4/4] z B[FA]B [B,FA]2 B,2 | z BGB G2 G2 | [DA]2 [DA]2 [DF]AcB | G2 Bc B3 B | c2 e2 B3 G | %14
w: |||||
 A2 c2 B2 z2 | E2 BG [A,DF]2 D->[DF] | E4 z4 |] %17
w: |||
V:2
 B,,2 C,D, E,2 B,,2 | [E,B,E]2 [E,A,E]2 [E,G,E]2 z2 | [E,G,E]2 [E,B,E][E,A,E] [E,G,]2 [B,,B,]2 | %3
 [E,B,E]6 z2 | B,,2 C,D, E,2 B,,2 | E,2 [C,F,]2 [B,,F,]2 [B,,F,]2 | %6
 [F,B,F]2 [F,B,D]2 [F,CF]2 [F,CE]2 |[M:3/4] B,,4 z2 |[M:1/4] B,,2 |[M:4/4] z G z G B,,2 B,,2 | %10
 z[K:treble] GEG[K:bass] [E,B,E]2 [E,B,E]2 | [B,,B,]2 [B,,B,]2 z F z[K:treble] G | %12
 E2 GA G3[K:bass] [E,G,E] | [E,A,E]2 [E,CE]2 [E,G,E]3 [E,B,E] | [E,CE]2 [E,A,E]2 [E,G,E]2 z2 | %15
 [E,G,]2 [E,G,E][E,B,E] B,,2 z z/ A,/ | [E,G,]4 z4 |] %17
V:3
 x8 | x8 | x8 | x8 | x8 | x8 | x8 |[M:3/4] x6 |[M:1/4] x2 |[M:4/4] B,2 z2 z4 | B,2 z2 z4 | x8 | %12
 x8 | x8 | x8 | z4 z2 [B,G]2 | x8 |] %17
V:4
 x8 | x8 | x8 | x8 | x8 | x8 | x8 |[M:3/4] x6 |[M:1/4] x2 |[M:4/4] B,,2 [B,,B,]2 z4 | %10
 E,2[K:treble] [E,B,]2[K:bass] z4 | z4 [B,,B,]2 [B,,B,]2[K:treble] | [E,B,]4 z4[K:bass] | x8 | x8 | %15
 z4 z2 B,,2 | x8 |] %17

